X:581
T:
S:Uppt. efter Lars Lagergren, Likmide, Hemse.
R:polka
M:2/4
L:1/16
K:G
bgdB gdBg|f2e2 ede|c'afd cdef|gfga b2d2|bgdB gdBg|f2e2 e2de|c'afd cdef|g2b2
g2 z2:|
K:D
|:a2ab agfe|d2f2 f2ed|cdef e2c2|edcB B2A2|a2ab agfe|d2d'2 d'afd|cegb
agec|d2f2 d2 z2:|

